Papirus/24x24/apps/gnome-mpv.svg

<svg xmlns="http://www.w3.org/2000/svg" width="24" height="24" version="1.0" viewBox="0 0 24 24" style="enable-background:new">
 <rect style="opacity:0.2;stroke:#000000;stroke-width:0;stroke-linecap:round;stroke-linejoin:round" width="21" height="16" x="1" y="4.5" rx="1.5" ry="1.455"/>
 <rect width="21" height="16" x="1" y="4" rx="1.5" ry="1.455" style="fill:#2769bc;stroke:#000000;stroke-width:0;stroke-linecap:round;stroke-linejoin:round"/>
 <path style="opacity:0.2" d="M 11.5,6.5 A 4.4999999,4.4999999 0 0 0 7.0000005,11 4.4999999,4.4999999 0 0 0 11.5,15.5 4.4999999,4.4999999 0 0 0 16,11 4.4999999,4.4999999 0 0 0 11.5,6.5 Z m -1.5,2 h 0.441406 0.04687 c 0.08532,-7.5e-4 0.167937,0.019351 0.242188,0.0625 l 3.416015,2 c 0.15156,0.08594 0.228516,0.261726 0.228516,0.4375 0,0.175776 -0.07695,0.351555 -0.228516,0.4375 l -3.416015,2 c -0.07424,0.0431 -0.156867,0.063 -0.242188,0.0625 H 10.441406 10 Z"/>
 <path d="M 11.5,6 A 4.4999999,4.4999999 0 0 0 7.0000005,10.5 4.4999999,4.4999999 0 0 0 11.5,15 4.4999999,4.4999999 0 0 0 16,10.5 4.4999999,4.4999999 0 0 0 11.5,6 Z M 10,8 h 0.441406 0.04687 c 0.08532,-7.5e-4 0.167937,0.019351 0.242188,0.0625 l 3.416015,2 c 0.15156,0.08594 0.228516,0.261726 0.228516,0.4375 0,0.175776 -0.07695,0.351555 -0.228516,0.4375 l -3.416015,2 C 10.656229,12.9806 10.573602,13.0005 10.488281,13 H 10.441406 10 Z" style="fill:#ffffff"/>
 <rect style="opacity:0.5;fill:#ffffff" width="11" height="1" x="6" y="17" rx=".344" ry=".5"/>
 <rect width="3" height="3" x="7" y="16.5" rx="1.5" ry="1.5" style="opacity:0.2"/>
 <rect style="fill:#ffffff" width="3" height="3" x="7" y="16" rx="1.5" ry="1.5"/>
 <path d="M 2.5,4 C 2.3232998,4 2.1571765,4.0339536 2,4.0878906 V 6 H 4 V 4 Z m 17,0 C 19.3233,4 19.157176,4.0339536 19,4.0878906 V 6 h 2 V 4 Z M 2,8 v 2 H 4 V 8 Z m 17,0 v 2 h 2 V 8 Z M 2,12 v 2 h 2 v -2 z m 17,0 v 2 h 2 V 12 Z M 2,16 v 2 h 2 v -2 z m 17,0 v 2 h 2 v -2 z" style="opacity:0.3;stroke:#000000;stroke-width:0;stroke-linecap:round;stroke-linejoin:round"/>
 <path d="m 2.5000005,4 c -0.831,0 -1.5,0.64926 -1.5,1.4550781 v 0.5 c 0,-0.8058181 0.669,-1.4550781 1.5,-1.4550781 H 20.5 c 0.831,0 1.5,0.64926 1.5,1.4550781 v -0.5 C 22,4.64926 21.331,4 20.5,4 Z" style="opacity:0.1;fill:#ffffff;stroke:#000000;stroke-width:0;stroke-linecap:round;stroke-linejoin:round"/>
</svg>

<svg xmlns="http://www.w3.org/2000/svg" width="24" height="24" version="1.0">
 <rect style="opacity:0.2" width="21" height="16" x="1" y="5.5" rx="1.5" ry="1.5"/>
 <rect style="fill:#2769bc" width="21" height="17" x="1" y="4" rx="1.5" ry="1.5"/>
 <path style="opacity:0.2" d="M 11.5,6.5 A 4.5,4.5 0 0 0 7,11 4.5,4.5 0 0 0 11.5,15.5 4.5,4.5 0 0 0 16,11 4.5,4.5 0 0 0 11.5,6.5 Z M 10,8.5 H 10.441 10.488 C 10.574,8.4992 10.656,8.5194 10.73,8.5625 L 14.146,10.563 C 14.298,10.648 14.375,10.824 14.375,11 14.375,11.176 14.298,11.352 14.146,11.438 L 10.73,13.438 C 10.656,13.481 10.574,13.501 10.488,13.5 H 10.441 10 Z"/>
 <path style="fill:#ffffff" d="M 11.5,6 A 4.5,4.5 0 0 0 7,10.5 4.5,4.5 0 0 0 11.5,15 4.5,4.5 0 0 0 16,10.5 4.5,4.5 0 0 0 11.5,6 Z M 10,8 H 10.441 10.488 C 10.574,7.9992 10.656,8.0194 10.73,8.0625 L 14.146,10.063 C 14.298,10.148 14.375,10.324 14.375,10.5 14.375,10.676 14.298,10.852 14.146,10.938 L 10.73,12.938 C 10.656,12.981 10.574,13.001 10.488,13 H 10.441 10 Z"/>
 <rect style="opacity:0.5;fill:#ffffff" width="11" height="1" x="6" y="17" rx=".5" ry=".5"/>
 <rect style="opacity:0.2" width="3" height="3" x="7" y="16.5" rx="1.5" ry="1.5"/>
 <rect style="fill:#ffffff" width="3" height="3" x="7" y="16" rx="1.5" ry="1.5"/>
 <path style="opacity:0.3" d="M 2,5 V 7 H 4 V 5 Z M 19,5 V 7 H 21 V 5 Z M 2,9 V 11 H 4 V 9 Z M 19,9 V 11 H 21 V 9 Z M 2,13 V 15 H 4 V 13 Z M 19,13 V 15 H 21 V 13 Z M 2,17 V 19 H 4 V 17 Z M 19,17 V 19 H 21 V 17 Z"/>
 <path style="fill:#ffffff;opacity:0.1" d="M 2.5 4 C 1.669 4 1 4.669 1 5.5 L 1 6 C 1 5.169 1.669 4.5 2.5 4.5 L 20.5 4.5 C 21.331 4.5 22 5.169 22 6 L 22 5.5 C 22 4.669 21.331 4 20.5 4 L 2.5 4 z"/>
</svg>
